!!!OTL: Der lustige Bauer
!!!ARE: Europa, Mitteleuropa, Deutschland
!!!SCT: A0306
!!!YEM: Copyright 1995, estate of Helmut Schaffrath.
**kern
*ICvox
*Ivox
!! Mixed meters:  4/2; 3/2
*M4/2
*k[b-]
*F:
{2.cc
4cc
2.cc
4cc
=1
2cc
1cc
2dd
=2
1cc
1f}
=3
{2.cc
4cc
2.cc
4cc
=4
2cc
1cc
2dd
=5
1cc
1f}
=6
{1r
1f
=7
1f
2f
[2f
=8
2f]
2e
2d
2d
=9
0c}
=10
{1r
1f
=11
1f
2f
[2f
=12
2f]
2e
2d
2d
=13
0c}
=14
*M3/2
{1f
2c
=15
1f
2g
=16
1.a
=17
1.g}
=18
{1f
2c
=19
1f
2g
=20
1a
2b-
=21
1cc}
{2cc
=22
1b-
2a
=23
1b-
2g
=24
1.f
=25
1.f}
==
!!!AGN: Romanze, Ballade, Lied
!! 68 Lieder. Nuernberg 1542 bei Berg und Newber. No. 10.
!!!ONB: ESAC (Essen Associative Code) Database: ALTDEU
!!!AMT: irregular
!!!AIN: vox
!!!EED: Helmut Schaffrath
!!!EEV: 1.0
*-
